X: 1
T: Hana
N: Transposed
C: Rentaro Taki
Z: https://www.youtube.com/watch?v=-Yw3ewe5jCI
M: C
L: 1/8
Q: 1/4=160
K: C
G2 |\
"C"G3G c3c | "F"dcBA "G7"G4 | "C"EGcd "Am"e2g2 | "Dm"d4- "G7"d2z2 |
"C"G3G c3c | "F"dcAB "Cc#"G4 | "Dm"d3d "G7"d2e2 | "C"c4- c2z2 ||
"C"g3g "Am"g3e | "Dm7"f3f "G7"f3d | "Am"e4 "D7"A2d2 | "G7"G4- G2z2 |
"C"G3G c3c | "F"dcBA "Cc#"G4 | "Dm"d2d>e "G7"f2d2 | "C"c4- c2 :|]

